assets/images/svg/booking.svg

<svg xmlns="http://www.w3.org/2000/svg" width="24" height="24" fill="none" viewBox="0 0 24 24"><path stroke="#808b97" stroke-linecap="round" stroke-linejoin="round" stroke-miterlimit="10" stroke-width="1.5" d="M8 2v3M16 2v3M3.5 9.09h17M22 19c0 .75-.21 1.46-.58 2.06A3.97 3.97 0 0 1 18 23c-1.01 0-1.93-.37-2.63-1-.31-.26-.58-.58-.79-.94A3.9 3.9 0 0 1 14 19c0-2.21 1.79-4 4-4 1.2 0 2.27.53 3 1.36A4 4 0 0 1 22 19"/><path stroke="#808b97" stroke-linecap="round" stroke-linejoin="round" stroke-width="1.5" d="m16.44 19 .99.99 2.13-1.97"/><path stroke="#808b97" stroke-linecap="round" stroke-linejoin="round" stroke-miterlimit="10" stroke-width="1.5" d="M21 8.5v7.86c-.73-.83-1.8-1.36-3-1.36-2.21 0-4 1.79-4 4 0 .75.21 1.46.58 2.06.21.36.48.68.79.94H8c-3.5 0-5-2-5-5V8.5c0-3 1.5-5 5-5h8c3.5 0 5 2 5 5"/><path stroke="#808b97" stroke-linecap="round" stroke-linejoin="round" stroke-width="2" d="M11.995 13.7h.009M8.295 13.7h.01M8.295 16.7h.009"/></svg>

<svg width="24" height="24" viewBox="0 0 24 24" fill="none" xmlns="http://www.w3.org/2000/svg">
<path d="M8 2V5" stroke="#808B97" stroke-width="1.5" stroke-miterlimit="10" stroke-linecap="round" stroke-linejoin="round"/>
<path d="M16 2V5" stroke="#808B97" stroke-width="1.5" stroke-miterlimit="10" stroke-linecap="round" stroke-linejoin="round"/>
<path d="M3.5 9.09009H20.5" stroke="#808B97" stroke-width="1.5" stroke-miterlimit="10" stroke-linecap="round" stroke-linejoin="round"/>
<path d="M22 19C22 19.75 21.79 20.46 21.42 21.06C20.73 22.22 19.46 23 18 23C16.99 23 16.07 22.63 15.37 22C15.06 21.74 14.79 21.42 14.58 21.06C14.21 20.46 14 19.75 14 19C14 16.79 15.79 15 18 15C19.2 15 20.27 15.53 21 16.36C21.62 17.07 22 17.99 22 19Z" stroke="#808B97" stroke-width="1.5" stroke-miterlimit="10" stroke-linecap="round" stroke-linejoin="round"/>
<path d="M16.4395 19L17.4295 19.99L19.5594 18.02" stroke="#808B97" stroke-width="1.5" stroke-linecap="round" stroke-linejoin="round"/>
<path d="M21 8.5V16.36C20.27 15.53 19.2 15 18 15C15.79 15 14 16.79 14 19C14 19.75 14.21 20.46 14.58 21.06C14.79 21.42 15.06 21.74 15.37 22H8C4.5 22 3 20 3 17V8.5C3 5.5 4.5 3.5 8 3.5H16C19.5 3.5 21 5.5 21 8.5Z" stroke="#808B97" stroke-width="1.5" stroke-miterlimit="10" stroke-linecap="round" stroke-linejoin="round"/>
<path d="M11.9945 13.7H12.0035" stroke="#808B97" stroke-width="2" stroke-linecap="round" stroke-linejoin="round"/>
<path d="M8.29529 13.7H8.30427" stroke="#808B97" stroke-width="2" stroke-linecap="round" stroke-linejoin="round"/>
<path d="M8.29492 16.7H8.3039" stroke="#808B97" stroke-width="2" stroke-linecap="round" stroke-linejoin="round"/>
</svg>
